X:1
T:Sederunt
T:Sederunt
T:Perotin
C:Perotin
%%score [ 1 2 3 4 ]
L:1/8
Q:3/8=116
M:12/8
K:C
V:1 treble-8 transpose=-12 nm="Quadruplum" snm="T."
V:2 treble-8 transpose=-12 nm="Triplum" snm="T."
V:3 treble-8 transpose=-12 nm="Duplum" snm="T."
V:4 treble-8 transpose=-12 nm="Tenor" snm="T."
V:1
 d6- d3 !fermata!z3 |[M:24/8] d3 e c2 d3 B G2 A3 B c2 A3 z3 | d3 e c2 d3 B G2 A3 B c2 d3 z3 | %3
w: SE- *|||
[M:18/8] A3 B G2 A3 B c2 | A3 z3 |[M:36/8]"^1" A2 G A2 _B A2 F G2 F A2 G A2 B A3 z3 | %6
w: |||
 A2 G A2 _B A3 z3 |[M:30/8] A2 G A2 _B A2 F G2 F A2 G A2 B | A2 G c3 d3 z3 | %9
w: |||
[M:24/8]"^2" A3 A2 A A3 G3 d3 d2 d | d3 c2 z |[M:42/8] A3 A2 A A3 F3 G3 FED F3 G2 E | %12
w: |||
 D3 z3 F3 G2 A A3 z3 |[M:36/8]"^3" d3 c3 d3 z3 d3 c3 | d3 A3 d3 c3 d3 z3 | %15
w: |||
 A2 G A2 _B A2 G A2 B A2 F G3 | A3 z3 A2 F G3 A3 z3 |[M:54/8] d3 c3 d3 z3 d3 c3 | %18
w: |||
 d3 A3 d3 c3 d3 z3 d3 c3 A2 F G3 A3 z3 |[M:12/8]"^4" d3 e2 f d3 z3 | %20
w: ||
[M:72/8] cde f2 z fed c2 d f2 d f2 z fed c2 d f2 d | %21
w: |
 f2 z fed c2 A c2 d c2 A c2 d c2 z A2 =B c2 z d2 c d2 e | c2 c d3 c3 z3 | %23
w: ||
[M:30/8]"^5" c2 B c2 A B2 G c2 z c2 d f2 e d3 c3 d3 z3 | %24
w: |
[M:36/8] d3 c3 d3 z3 d3 c2 d A3 z2 d z2 d z2 c d3 z3 | %25
w: |
 d3 c3 d3 z3"^6" d3 c3 d2 c A2 c d3 c3 A3 z3 | d3 c3 d3 z3 d3 c2 d A3 z2 d z2 d z2 c d3 z3 | %27
w: ||
[M:24/8] A3 B2 c d3 z3 dcB A3 G3 z3 |[M:78/8]"^7" d3 z3 d3 e3 | %29
w: ||
 d3 z3 d2 c B2 A G3 z3 A2 c B2 c d3 B3 d2 c B2 c | d3 B3 A3 B2 c d3 z3 e2 d d2 c d3 z3 | %31
w: ||
[M:24/8]"^8" d2 d c2 B A3 G2 z F2 G E2 F D3 z3 | %32
w: |
[M:78/8] d2 d c2 B A3 G3 A2 B c2 B d3 z3 G3 z3 G2 A B2 A | %33
w: |
 c3 z3 c2 A B3 A3 z3"^9" c3 d3 B3 G3 d3 c2 A B3 A2 z | %34
w: |
[M:36/8] A3 B3 c6 d3 z3"^10" d3 dcB A2 B c3 d3 z3 |[M:24/8] c2 d e2 f d2 e c2 B d3 d3 d3 z3 | %36
w: ||
 c2 d e2 f d2 e c2 B | d3 d3 c3 z3 |[M:18/8] f3 e2 d e6 f3 !fermata!z3 || %39
w: |||
[M:17/8][Q:3/8=50]"^11" FGAA AGAGFF AGF G2 F2 |[M:24/8] FFGA cdc | dcc AB A2 A cc cc cc A2 z | %42
w: PRIN- * * CI- PES, * * * * * * * * * *|ET AD- VER- SUM ME * *|* * * * * * LO- QUE- * BAN- * * * TUR:|
[M:32/8] Ac def d2 c | cc Bc AG FAG cdBc A2 FAG AGG F2 !fermata!z || %44
w: ET IN- I- * * QUI PER-|SE- CU- TI * SUNT- * ME.- * * * * * * * * * * * * * *|
[K:F][M:12/8]"^12"[Q:3/8=116] f6- f3 z3 |[M:48/8] f6 e6 d6 f3 z3 f6 e6 d6 c3 z3 | %46
w: AD- *||
[M:30/8] d3 f3 f3 f2 z | f3 e3 d3 e3 f2 e d2 z | d3 f3 f3 f2 z g3 f3 d3 e3 e2 d c2 z | %49
w: |||
 d3 f3 f3 f2 z f3 e3 d3 e3 | c3 B2 z |[M:33/8] d3 f3 g3 c2 z d3 f3 =e3 e3 d3 c3 z3 | %52
w: |||
[M:54/8]"^13" f3 e2 z e2 d f2 g f2 z d2 f | %53
w: |
 e2 z c2 e d2 z c2 B c2 z e2 d f2 e d2 z c2 d c2 e d3 c2 z | %54
w: |
 f3 e2 z e2 d f2 g f2 z d2 f e2 z c2 e d2 z c2 B c2 z e2 d | f2 e d2 z c2 d c2 e d3 c2 z | %56
w: ||
[M:42/8]"^14" e3 f2 d e3 f2 z e3 f2 d | e3 c2 z e3 f3 f2 d e2 z f2 d e2 z | %58
w: ||
[M:39/8] d2 f e2 z d2 e c2 d | e2 z d3 e3 d2 f e3 d2 f e3 d3 c2 z |[M:30/8] e3 f2 d e3 f2 z | %61
w: |||
"^15" f3 e2 d e2 e d3 c3 z3 |[M:120/8] f3 e3 d3 z3 c2 d e2 f | %63
w: * * * * * * IU-||
 d3 d3 c3 f2 e d2 e f3 e3 d2 z c3 A3 B3 B3 | c3 c2 d e2 d c3 A3 B2 z c2 d e2 f d3 d3 c3 e2 d | %65
w: ||
 c2 d f3 d3 B2 z c2 B A2 G B3 B3 c3 z3 |[M:84/8]"^16" f3 e3 | %67
w: ||
 c3 d3 e2 f e3 c3 f3 d3 e3 c3 d3 f3 g3 | c3 f3 e2 c d2 e d3 c2 z e3 z3 f3 e3 d3 d3 | c3 z3 | %70
w: |||
[M:30/8]"^17" c3 d3 e3 f3 e3 f3 d3 e3 f3 z3 |[M:48/8] f3 d e2 f3 z3 f3 g f2 e3 d e2 f3 z3 f3 z3 | %72
w: * * * * * * * * VA||
 e3 z3 d3 z3 |[M:72/8] c3 d e2 c3 d e2 f3 z3 d3 z3 | f3 e f2 d3 z3 c3 B c2 d3 e d2 c3 z3 d3 e d2 | %75
w: |||
 c3 d e2 f3 z3 |[M:24/8]"^18" e3 d e2 c3 B c2 d3 e d2 c3 z3 | e3 z3 f3 z3 e d2 e3 f3 z3 | %78
w: |||
[M:18/8] f3 e d2 e6 f3 z3 |[M:24/8]"^19" f2 e d3 f3 e2 z g6 a3 z3 | f2 d e2 d c2 d e2 z | %81
w: |||
 f2 g a3 g3 e2 z | f2 d e3 f3 e2 z c2 d e3 d3 e2 z | f3 e3 d2 f e2 z f2 g e2 f d2 f e2 z | %84
w: |||
 f3 e3 d3 e2 z | f2 f e2 g f2 g e2 z |"^20" f2 g e2 f g2 f d2 e f2 g e2 f g3 z3 | %87
w: |||
[M:18/8] f3 e2 !/!d c3 d2 e f3 z3 |[M:24/8] f2 d e2 d c2 d e2 z f2 g a3 | g3 e2 z | %90
w: * * * ME * * *|||
 f2 d e3 f3 e2 z c2 d e3 d3 e2 z | f2 g e2 f | g2 f d2 e f2 g e2 f g3 z3 | %93
w: |||
[M:18/8] f3 e3 c3 d2 e f3 z3 |[M:24/8] c3 d2 e d3 c2 z d3 e3 fed e2 z |"^21" e3 d3 f3 e3 | %96
w: |||
 d3 e3 d3 z3 | d3 e2 e d3 c2 z G3 A3 B3 c2 z | d3 c3 d3 B3 d3 c3 d2 =e f2 z |"^22" g3 fed c3 B3 | %100
w: ||||
 d3 d3 c3 z3 | c3 d e2 f3 f3 e d2 e3 f3 f !/!e2 | c3 d e2 | f e2 d f2 e3 d3 c3 z3 | %104
w: ||||
 F3 A3 G A2 G B2 A3 G3 | F3"^23" z3 | F3 G A2 B3 c3 B A2 B3 c3 z3 | c2 d e2 f | %108
w: ||* * * * * * * * MI-||
 e3 d3 c2 d e2 f g3 z3 | c2 d e2 f e3 d2 z c2 d e3 | f3 z3 | %111
w: |||
 c2 d e2 d e2 f d2 z c2 d e2 !/!f g3 z3 | c2 d e2 d | e2 f d2 z c2 d e3 f3 z3 | %114
w: * * * * * * * * * * * NE-|||
[M:36/8]"^24" f2 d e3 f3 e3 f3 d3 | e3 d3 d2 e d3 c3 z3 |[M:18/8] A2 B c2 B G2 A B3 c3 z3 || %117
w: |||
[M:36/8]"^25" f3 e2 d f2 f e2 d f2 z g2 f e2 d f3 g2 z e2 c B3 c2 z | %118
w: |
[M:24/8] g2 f e2 d c2 z a2 b g2 a f2 z age f2 z |[M:63/8] a2 g f!/!ed e2 z g2 a | %120
w: ||
 c2 d e2 z f2 z g2 z a2 g f!/!ed c2 z g2 f g2 e f2 z a2 g f2 e | d2 z c3 d2 e f3 z3 || %122
w: ||
[M:60/8]"^26" f2 g f2 d e3 z3 c3 z3 d3 z3 e3 | z3 f3 z3 d2 e f2 d e3 z3 f2 g e2 c d3 z3 | %124
w: ||
[M:24/8] f3 e3 | g3 e3 c3 d2 e f3 z3 ||[M:36/8]"^27" a2 g f2 e g3 z3 f3 e3 | %127
w: ||DE- * * * * US *|
 f3 z3 f2 g a2 g e3 e2 !/!d | c3 z3 f3 e2 !/!d c2 d e2 z | a2 g f2 e g3 f3 g3 z3 | %130
w: |ME- * * * US * *||
[M:18/8] fed c2 d e3 e3 f3 z3 |[M:24/8]"^28" f2 d e2 !/!d c3 d3 f3 e3 f3 z3 | %132
w: |SAL- * * * VUM * ME * FAC|
[M:18/8] f2 d e2 f g3 e3 | f3 z3 |[M:24/8] f2 d e2 !/!d c3 d3 f3 e3 f3 z3 |[M:30/8] e2 d e2 f | %136
w: PRO- * * * * *|PTER|MI- * * * SE- * RI- * COR-||
 g3 c3 c2 d e2 !/!f d3 c3 e3 z3 |[M:24/8]"^29" f2 d e2 d c2 d e2 f | e2 d f3 g3 e2"^30" z | %139
w: * * * * * * DI- * *|||
 f2 d e2 z c2 d e2 z e2 d c2 d f2 d e2 z | f2 d e3 c3 A2 z A2 G c3 c3 A2 z | %141
w: ||
[M:36/8] f3 e3 d2 f e2 z | e2 d f3 g3 e2 z f3- f2 g a3 !fermata!z3 || %143
w: |* * * * * * * * AM.|
[M:37/8]"^31"[Q:3/8=50] Ac=BA ccc cc _BA BG F2 ABG F2 AG c2 cc cAA FAG AGG F2 |] %144
w: TU- * * * * * * AM. * * * * * * * * * * * * * * * * * * * * * * * * *|
[K:C][M:12/8]"^32"[Q:3/8=116] d6- d3 !fermata!z3 |[M:18/8] dd!/!e f2 z efe dc/B/A cde/!/!f/ d2 z | %146
w: SE- *|* * * DE- * * * * * * * * * * * RUNT|
 cde dc/B/A cBc d2 z | dcd d2 z |[M:30/8] dcd fec A2 z cBc d2 z d2 z | edf ded f3 z3 | %150
w: ||||
[M:18/8] f3- f2 e d3 e3 f3 !fermata!z3 ||[M:17/8][Q:1/2=200] FGAA AGAGFF AGF G2 F2 | %152
w: |PRIN- * * CI- PES, * * * * * * * * * *|
[M:24/8] FFGA cdc dcc AB A2 | A cc cc cc A2 z |[M:32/8] Ac def d2 ccc Bc | %155
w: ET AD VER SUM ME * * * * * * * *|LO- QUE- BAN- * * * * TUR:|ET IN- I- * * QUI PER SE CU TI _|
 AGF AGc dBc A2 F AGA GG F2 z |] %156
w: SUNT * ME. * * * * * * * * * * * * * *|
V:2
 A6- A3 !fermata!z3 |[M:24/8] A3 G F2 G3 F E2 F3 E D2 D3 z3 | A3 G F2 G3 F E2 F3 G A2 A3 z3 | %3
w: |||
[M:18/8] A3 B c2 A3 B c2 | d3 z3 |[M:36/8] d3 d2 d d3 c2 z A3 A2 A A3 G2 z | d3 d2 d d3 c2 z | %7
w: ||||
[M:30/8] A3 A2 A A3 G2 z d3 d2 d | c2 d c3 A3 z3 |[M:24/8] A2 G A2 _B A2 F G2 F A2 G A2 B | A3 z3 | %11
w: ||||
[M:42/8] A2 G A2 _B A3 z3 A2 G A2 B A2 F G2 F | A2 G A2 _B A2 G c3 d3 z3 | %13
w: ||
[M:36/8] A2 G A2 _B A2 G A2 B A3 z3 | A2 G A2 _B A2 G A2 B G3 z3 | d3 c3 d3 z3 d3 c3 | %16
w: |||
 d3 A3 d3 c3 d3 z3 |[M:54/8] D2 E F2 E D2 E F2 E D3 z3 | %18
w: ||
 A2 A F2 G A2 A F2 G A2 A D2 z A2 =B c3 d2 B c3 d3 z3 |[M:12/8] d3 cBA A3 !/!B3 | %20
w: ||
[M:72/8] c3 z3 c2 A F3 G3 F2 G A2 G F2 A c2 d | %21
w: |
 c2 A c2 d c2 z fed c2 d f2 d f2 z d2 e c2 B d2 z G2 A | c2 c B!/!AB c3 z3 | %23
w: ||
[M:30/8] c2 d c2 c B2 d c2 z A2 B c2 B d3 c3 A3 z3 | %24
w: |
[M:36/8] A2 G F2 G A3 z3 A2 G F2 G A2 B G2 G A2 G F2 G A3 z3 | %25
w: |
 D3 E3 D3 z3 A2 G F2 G A2 B G2 G A2 G F2 G A3 z3 | %26
w: |
 D2 E F2 E D3 z3 D2 E F2 G E3 E2 z D2 E F2 E D3 z3 |[M:24/8] A3 G2 F G3 A2 z A2 B B2 A G3 z3 | %28
w: ||
[M:78/8] G3 A3 G3 z3 | G2 A B2 A G3 z3 G2 A B3 A3 B2 z G2 A B2 A G2 A B2 z | %30
w: ||
 G2 F E2 D F3 G3 A3 z3 B2 A B2 G A3 z3 |[M:24/8] D2 E F2 E D3 z3 A2 B c2 B d3 z3 | %32
w: ||
[M:78/8] A2 G F2 G A3 z3 D2 E F2 E D3 z3 G2 A B2 A G3 z3 | %33
w: |
 F2 G A2 G F3 G3 A3 z3 c2 B A2 A B2 A G2 G A2 G F3 G3 A2 z | %34
w: |
[M:36/8] A3 G3 F3 E3 D3 z3 D3 E2 F D2 E F3 G3 z3 |[M:24/8] c2 c B2 c A2 B c2 B A3 B3 G3 z3 | %36
w: * * * * * * * * * * * RUNT||
 c2 c B2 c A2 B c2 B | A3 B3 c3 z3 |[M:18/8] c2 B c2 d e6 c3 !fermata!z3 || %39
w: |||
[M:17/8] z3 z3 z3 z3 z3 z2 |[M:24/8] z7 | z17 |[M:32/8] z8 | z24 ||[K:F][M:12/8] c6- c3 z3 | %45
w: |||||AD- *|
[M:48/8] d3 z3 c2 B d3 d6 c3 z3 d3 z3 c2 B d3 B6 c3 z3 |[M:30/8] d3 e3 d3 c2 z | %47
w: ||
 d3 e3 d3 c3 B3 d2 z | d3 e3 d3 c2 z d3 c3 d3 B3 c3 c2 z | d3 e3 d3 c2 z B3 c3 G3 B3 | c3 B2 z | %51
w: ||||
[M:33/8] B3 B3 c3 c2 z B3 c3 B3 d3 d3 c3 z3 |[M:54/8] B3 c2 A B3 c2 z B2 c d2 z | %53
w: ||
 B3 c2 A B3 c2 z c2 d e2 d c2 B d2 z c2 B c2 A B3 c2 z | %54
w: |
 B3 c2 A B3 c2 z B2 c d2 z B3 c2 A B3 c2 z c2 d e2 d | c2 B d2 z c2 B c2 A B3 c2 z | %56
w: ||
[M:42/8] e2 c c2 A B3 c2 z e2 c c2 d | B3 c2 z e2 c cde f3 e2 z c3 A2 z | %58
w: ||
[M:39/8] G2 F A2 G B3 c2 z | A3 G2 F A3 G3 A3 G2 F A2 G B3 c2 z |[M:30/8] e2 c c2 A B3 c2 z | %61
w: |||
 F3 G2 A A3 G3 F3 z3 |[M:120/8] c2 d e2 f d3 B3 c3 A3 | B3 B3 c3 z3 F3 z3 z3 z3 F2 G A2 B G3 G3 | %64
w: * * * * * IU-|||
 F3 z3 c3 z3 z3 z3 c3 A3 B3 B3 c3 z3 | A3 z3 z3 z3 c2 d e2 f d3 d3 c3 z3 |[M:84/8] B2 z A2 B | %67
w: |||
 F2 G B3 A2 z A2 G F2 A c3 G3 A3 F3 G3 F3 G2 A | F2 G B3 c3 A3 B3 c2 z A3 B3 c2 B A2 G B3 B3 | %69
w: ||
 c3 z3 |[M:30/8] c3 B3 A3 G3 A3 F3 G3 A2 B c3 z3 | %71
w: ||
[M:48/8] F3 G A2 B3 z3 B3 A G2 A3 z3 F3 G A2 B3 B G2 | A3 A F2 G3 z3 | %73
w: ||
[M:72/8] c3 d B2 c3 d e2 c3 z3 d3 c B2 | c3 z3 d3 c B2 c3 d e2 d3 c B2 c3 z3 d3 c B2 | %75
w: ||
 c3 A B2 c3 z3 |[M:24/8] A3 G F2 F3 F E2 G3 A F2 F3 z3 | A3 B c2 c3 d B2 G3 A B2 c3 z3 | %78
w: |||
[M:18/8] c3 B A2 G6 F3 z3 |[M:24/8] F3 G2 A B3 A2 z c6 d3 e2 z | f3 e3 g3 e2 z | %81
w: |||
 f2 f e2 f g2 g e2 z | f3 e3 d3 e2 z f2 f e2 g f2 g e2 z | f2 f e2 d f3 e2 z c3 A3 B3 A2 z | %84
w: |||
 c2 B A2 G B3 A2 z | F2 G A3 B3 A2 z | c2 B A2 F G2 G G2 A c2 B A2 F G3 z3 | %87
w: |||
[M:18/8] c2 B A2 !/!G B3 A3 G3 F2 z |[M:24/8] F2 G A3 G3 A2 z F2 G A3 | G3 A2 z | %90
w: * * * * ME * * *|||
 F2 G A2 G B2 G A2 z F2 G A2 G B2 G A2 z | F2 G A3 | G3 z3 F2 G A3 G3 z3 | %93
w: |||
[M:18/8] F2 G A2 B G3 G3 F3 z3 |[M:24/8] c3 d2 e f3 z3 e3 e2 d f3 e2 z | e3 d3 c3 B3 | %96
w: |||
 d3 e3 f3 z3 | g2 f e2 d c3 z3 d3 c3 Bcd _e2 z | d2 f _e3 d2 f e3 d2 f e3 dcB d2 z | %99
w: |||
 c3 B3 c3 B2 G | B3 B3 c3 z3 | F3 A3 G A2 G B2 A3 G3 F3 z3 | F3 G A2 | B3 c3 B A2 B3 c3 z3 | %104
w: ||DO- * * * * * * * *|||
 c3 d e2 f3 f3 e d2 e3 | f3 f !/!e2 | c3 d e2 f e2 d f2 e3 d3 c3 z3 | f3 e3 | %108
w: ||||
 e2 c d2 e f3 e3 d3 z3 | f3 e3 e2 c d2 e f3 e2 d | c3 z3 | f2 g e2 g e2 c d2 e f3 e3 d3 z3 | %112
w: ||||
 f2 g e2 g | f!/!ec d2 z c2 B A2 B c3 z3 |[M:36/8] c2 B A2 G F3 A2 z B2 c d2 c | %115
w: |||
 A2 B c2 B G2 A B3 c3 z3 |[M:18/8] e2 d f2 e c2 d e3 f3 z3 || %117
w: ||
[M:36/8] c2 d e2 d c2 d e2 z c2 B A!/!GA B3 c2 z d2 e c2 d B3 c2 z | %118
w: |
[M:24/8] d2 e c2 d f!/!ed e2 z d2 e c2 c d3 c2 z |[M:63/8] e2 d f2 f e!/!dc d2 z | %120
w: ||
 f2 f e!/!de f2 e d2 z e2 d c2 d f2 e d2 z d2 e c2 c d3 c2 z | dcB A!/!FG A3 F3 z3 || %122
w: ||
[M:60/8] F2 G B2 G A3 z3 c2 B A2 F G3 z3 A2 G | B3 c3 z3 G3 z3 A3 z3 c3 z3 G3 z3 |[M:24/8] A3 B3 | %125
w: |||
 c2 B A2 G B3 B3 c3 z3 ||[M:36/8] e2 d f2 e d3 B2 z c3 z3 | c3 B3 c2 d e2 d e3 e2 !/!d | %128
w: |||
 c3 z3 c2 d e2 !/!d c3 z3 | A2 B c2 B G3 z3 d3 z3 |[M:18/8] c2 B c2 A B3 B3 c3 z3 | %131
w: ME- * * * * US|||
[M:24/8] c2 d e2 !/!d f2 e d2 !/!c c2 A B3 c3 z3 |[M:18/8] c3 B3 d3 d3 | c3 z3 | %134
w: SAL- * * * VUM * * * ME * * FAC|PRO- * * *||
[M:24/8] c2 B A2 !/!G F3 z3 c2 d e2 !/!d c3 z3 |[M:30/8] e2 g e2 f | %136
w: MI- * * * SE- RI- * * * COR-||
 d2 c c2 B c2 d c2 !/!B d3 f3 e3 z3 |[M:24/8] c2 B A2 G c2 d e2 z | e2 d c2 d f2 d e2 z | %139
w: * * * * * * * * DI- * *|||
 c2 d e3 c3 A2 z A2 G c3 c3 A2 z | c2 B A2 G c2 d e2 d e2 d f3 g3 e2 z | %141
w: ||
[M:36/8] c2 d e2 f e2 d e2 g | f!/!ed c3 d3 e2 z f2 e f2 g e3 !fermata!z3 ||[M:37/8] z37 |] %144
w: |* * * * * * * * * * AM.||
[K:C][M:12/8] A6- A3 !fermata!z3 |[M:18/8] AA!/!B c2 z A_BA GAG FEF G2 z | FGA A2 z FED D2 z | %147
w: SE- *|* * * DE- * * * * * * * * * RUNT||
 GA_B A2 z |[M:30/8] GA=B cBc d2 z A/!/!G/F/E/D DEF G2 z | ABc ded c3 z3 | %150
w: |||
[M:18/8] F2 G A2 c A2 A G3 F3 !fermata!z3 ||[M:17/8] z17 |[M:24/8] z14 | z10 |[M:32/8] z12 | z20 |] %156
w: ||||||
V:3
 A6- A3 !fermata!z3 |[M:24/8] A3 _B A2 G3 A G2 F3 G A2 A3 z3 | A3 _B A2 G3 A G2 F3 E D2 D3 z3 | %3
w: SE- *|||
[M:18/8] F3 E D2 F3 G A2 | A3 z3 |[M:36/8] A3 A2 A A3 G2 z d3 d2 d d3 c2 z | A3 A2 A A3 F2 z | %7
w: ||||
[M:30/8] G3 FED F3 G2 E D3 z3 | F3 G2 A A3 z3 |[M:24/8] d3 d2 d d3 c2 z A3 A2 A | A3 G2 z | %11
w: ||||
[M:42/8] d3 d2 d d3 c2 z A3 A2 A A3 G3 | d3 d2 d c2 d c3 A3 z3 | %13
w: ||
[M:36/8] A2 _B A2 G A2 B A2 G A3 z3 | A2 _B A2 G A2 B A2 F G3 z3 | A2 _B A2 G A2 B A2 G d2 c c2 B | %16
w: |||
 A3 A2 !/!G d2 c c2 _B A2 G F3 |[M:54/8] G2 G F2 G A2 A F2 G A2 A D2 z | %18
w: ||
 F2 E D2 C D3 D2 !/!E G2 F F2 E D3 z3 A3 A2 A A3 z3 |[M:12/8] A3 =B2 c d3 z3 | %20
w: ||
[M:72/8] c2 A F2 A c2 d c2 A c2 d c2 A c2 d c2 A F2 z | %21
w: |
 G3 F3 G3 F2 G A2 G F2 z F2 E D2 E F2 E D2 E G2 G | C3 D3 C3 z3 | %23
w: ||
[M:30/8] C2 D F2 F E2 D F2 z A2 G F2 E D3 C3 D3 z3 | %24
w: |
[M:36/8] D2 E F2 E D3 z3 D2 E F2 G E3 E2 z D2 E F2 E D3 z3 | %25
w: |
 A2 B c2 B A3 z3 A2 B c2 B A3 G3 A2 B c2 B A3 z3 | %26
w: |
 A2 G F2 G A3 z3 A2 G F2 G A2 B G2 G A2 G F2 G A3 z3 |[M:24/8] D3 E3 D3 z3 D3 E2 F G3 z3 | %28
w: ||
[M:78/8] G3 F3 G3 E2 z | G2 G F2 D G3 E2 z G3 F3 A2 G E2 z G2 G F2 D G3 E2 z | %30
w: ||
 G2 A B2 c A3 F3 D3 z3 E6 D3 z3 |[M:24/8] A2 B c2 B d3 G2 z A2 B c2 B A3 z3 | %32
w: ||
[M:78/8] A2 B c2 B d3 G2 z A2 G F2 G A3 F2 z G2 F E2 F G3 E2 z | %33
w: |
 F2 E D2 E F3 E3 D3 z3 F2 G A2 G E2 F G2 F D2 E F3 E3 D2 z | %34
w: |
[M:36/8] A3 E3 A2 B c3 A3 z3 A3 B2 c d2 d cBA G3 z3 |[M:24/8] C2 D E2 C D2 E F2 D E3 E3 G3 z3 | %36
w: * * * * * * * * * * * * * * RUNT||
 C2 D E2 C D2 E F2 D | E3 E3 F3 z3 |[M:18/8] F2 E F2 D E6 F3 !fermata!z3 || %39
w: |||
[M:17/8] z3 z3 z3 z3 z3 z2 |[M:24/8] z7 | z17 |[M:32/8] z8 | z24 ||[K:F][M:12/8] c6- c3 z3 | %45
w: |||||AD- *|
[M:48/8] B3 z3 c2 B G3 B6 c3 z3 B3 z3 c2 B G3 G6 F3 z3 |[M:30/8] B3 B3 c3 c2 z | %47
w: ||
 B3 B3 c3 c3 B3 G2 z | B3 B3 c3 c2 z G3 G3 A3 B3 A2 G F2 z | B3 B3 c3 c2 z d3 c3 d3 B3 | c3 _e2 z | %51
w: ||||
[M:33/8] f3 =e3 d3 c2 z d3 c3 d3 B3 c3 c3 z3 |[M:54/8] d3 c3 e2 d c2 d f2 e d2 z | %53
w: ||
 e2 d c2 c d3 c2 z c3 A3 c2 B G2 z c2 A F2 F G3 F2 z | %54
w: |
 d3 c3 e2 d c2 d f2 e d2 z e2 d c2 c d3 c2 z c3 A3 | c2 B G2 z c2 A F2 F G3 F2 z | %56
w: ||
[M:42/8] A2 c c2 d d3 c2 z A2 c c2 B | d2 d e2 c A2 c c2 B/!/!A/ G2 F A2 z G3 A2 z | %58
w: ||
[M:39/8] G2 B A2 A G3 F2 z | A2 z G2 B A2 A G2 B A2 A G2 B A2 A G3 F2 z | %60
w: ||
[M:30/8] A2 c c2 d d3 c2 z | B6 A3 B3 c3 z3 |[M:120/8] c3 A3 B3 B3 c3 z3 | %63
w: |* * * IU-||
 z3 z3 F3 z3 c3 A3 B3 B3 c3 z3 z3 z3 | c3 z3 F2 G A2 B G3 G3 F3 z3 z3 z3 A3 z3 | %65
w: ||
 F2 G A2 B G3 G3 F3 z3 z3 z3 z3 z3 |[M:84/8] B2 z A2 B | %67
w: ||
 c2 B G3 A2 z A2 B c2 A F3 G2 z A2 B c2 B G2 A B2 A G2 A | %68
w: |
 c2 c F3 G3 A2 z F3 G3 A3 z3 F2 G A2 B G3 G3 | F3 z3 |[M:30/8] F3 G3 A3 B3 A3 A3 G6 F3 z3 | %71
w: ||* * * * * * * VA|
[M:48/8] c3 A c2 B3 z3 B3 G B2 A3 z3 c3 A c2 B3 G B2 | A3 F A2 G3 z3 | %73
w: ||
[M:72/8] F3 E G2 F3 z3 F3 G A2 G3 z3 | F3 G A2 G3 G A2 F3 G A2 G3 z3 F3 G A2 G3 G A2 | %75
w: ||
 F3 E G2 F3 z3 |[M:24/8] A3 B c2 c3 d B2 G3 A B2 c3 z3 | A3 G F2 F3 F E2 G3 A F2 F3 z3 | %78
w: |||
[M:18/8] F6 G3 A3 B3 z3 |[M:24/8] B2 A G2 F F2 G A2 z G6 A3 z3 | F2 G A3 G3 A2 z | %81
w: |||
 F2 G A3 G3 A2 z | F2 G A2 G B2 G A2 z F2 G A2 G B2 G A2 z | c2 d e3 d3 e2 z c2 d e3 d3 e2 z | %84
w: |||
 c2 d e2 d f2 d e2 z | c2 d e2 d f2 d e2 z | c2 d e3 d3 z3 c2 d e3 d3 z3 | %87
w: |||
[M:18/8] c2 d e3 f2 e d3 c3 z3 |[M:24/8] f3 e3 g3 e2 z f2 f e2 f | g2 g e2 z | %90
w: * * * ME * * *|||
 f3 e3 d3 e2 z f2 f e2 g f2 g e2 z | f2 g e2 c | d2 d d2 e f2 g e2 c d3 z3 | %93
w: |||
[M:18/8] c2 B A2 G B3 B3 c3 z3 |[M:24/8] g3 g3 f3 z3 e2 d c3 d3 e2 z | e3 g3 f3 e3 | %96
w: |||
 d3 c2 c B3 z3 | G6 c3 z3 d3 e3 f3 _e2 z | d3 _e3 d3 e3 d3 e2 e d2 c B2 z | c3 d2 =e f3 f2 e | %100
w: ||||
 c2 c d3 c3 z3 | c3 A c2 B A2 G F2 A3 G A2 c3 z3 | c3 A c2 | B A2 G F2 G A2 B G2 F3 z3 | %104
w: |DO- * * * * * * * * * *|||
 c3 A c2 B A2 G F2 A3 G A2 | c3 z3 | c3 A c2 B A2 G F2 G A2 B G2 F3 z3 | F2 G A2 G | %108
w: ||* * * * * * * * * * * MI-||
 A3 G2 z F2 G A2 F G3 z3 | F2 G A2 G A3 G2 z F2 G A2 G | F3 z3 | %111
w: |||
 F2 G A2 G A3 G2 z F2 G A2 !/!F G3 z3 | F2 G A2 G | A3 G2 z F2 G A2 G F3 z3 | %114
w: * * * * * * * * * * NE-|||
[M:36/8] F2 G A2 B c2 B A2 G B2 A G2 F | A2 G F2 E G3 G3 F3 z3 |[M:18/8] A2 G F2 E G3 G3 F3 z3 || %117
w: |||
[M:36/8] c2 B A2 G F3 A2 z F2 A G2 B A2 G F2 z G2 A c2 c d3 c2 z | %118
w: |
[M:24/8] G2 A c!/!BG F3 A2 z G2 A F2 G A3 c2 z |[M:63/8] A2 B c2 B A2 B c2 z | %120
w: ||
 c2 d e2 d c!/!BA G3 A2 z cBG F2 z G2 A G2 A F3 A2 z c2 z | A!/!GA B2 z c2 B c3 z3 || %122
w: ||
[M:60/8] c3 B3 A3 G3 F3 A3 G3 B3 A3 | G3 F3 A3 G3 B3 A3 G3 F3 A3 G3 z3 |[M:24/8] F3 A3 | %125
w: |||
 G3 A3 E3 G3 F3 z3 ||[M:36/8] A2 G F2 A G3 z3 c2 B A2 G | F3 z3 c2 B A2 G A3 z3 | %128
w: |DE- * * * * US * * *||
 c2 d e2 d c3 z3 c2 A c2 d | e3 z3 d3 z3 G3 z3 |[M:18/8] F2 G A2 B G3 G3 F3 z3 | %131
w: ME- * * * * US * * *|||
[M:24/8] c2 B A2 !/!G F3 z3 c2 d e2 !/!d c3 z3 |[M:18/8] c3 B3 G3 A2 B | c3 z3 | %134
w: SAL- * * * VUM ME * * * FAC|PRO- * * * *|PTER|
[M:24/8] c2 d e2 !/!d f2 e d2 !/!c c2 A B3 c3 z3 |[M:30/8] A2 G A2 F | %136
w: MI- * * * SE- * * * RI- * * COR-||
 G2 G G2 A c2 B c2 !/!B G3 B3 A3 z3 |[M:24/8] c2 d e3 c3 A2 z | A2 G c3 c3 A2 z | %139
w: * * * * * * * * DI- * *|||
 c2 B A3 G3 A2 z A2 G F3 G3 A2 z | F2 G A2 B A2 G A2 B A2 G F3 G3 A2 z | %141
w: ||
[M:36/8] c2 B A2 G A2 B A2 G | A2 B c3 c3 A2 z B2 A B2 G A3 !fermata!z3 ||[M:37/8] z37 |] %144
w: |* * * * * * * * * AM.||
[K:C][M:12/8] d6- d3 !fermata!z3 |[M:18/8] ddd cdc AAG ddd cBc d2 z | cBc ddd cdc A2 z | %147
w: SE- *|* * * DE- * * * * * * * * * * * RUNT||
 GF/E/D D2 z |[M:30/8] GF/E/D FGA AAB cdc A2 z ddc | AGF GAB c3 z3 | %150
w: |||
[M:18/8] cBc A3 A3 B3 c3 !fermata!z3 ||[M:17/8] z17 |[M:24/8] z14 | z10 |[M:32/8] z12 | z20 |] %156
w: ||||||
V:4
 D12- |[M:24/8] D12- D12- | D12- D12- |[M:18/8] D12- | D6- |[M:36/8] D12- D12- | D12- | %7
w: SE-|||||||
[M:30/8] D12- D6- | D12- |[M:24/8] D12- D6- | D6- |[M:42/8] D12- D12- | D12- D6- | %13
w: ||||||
[M:36/8] D12- D6- | D12- D6- | D12- D6- | D12- D6- |[M:54/8] D12- D6- | D12- D12- D12- | %19
w: ||||||
[M:12/8] D12 |[M:72/8] F12- F12- F3- | F12- F12- F6- F3- | F12- |[M:30/8] F12- F12 A6- | %24
w: |DE- * *||||
[M:36/8] A12- A12- A12- | A12- A12- A12- | A12- A12- A12- |[M:24/8] A6- A6- A6 G6- |[M:78/8] G12- | %29
w: |||||
 G12- G12- G12- | G12 A12- A6- |[M:24/8] A12- A12- |[M:78/8] A12- A12- A12- | A12- A12- A12- A6- | %34
w: |||||
[M:36/8] A12- A12- A6 G6- |[M:24/8] G12- G12- | G12- | G6 F6- |[M:18/8] F12- F6 ||[M:17/8] z17 | %40
w: * * * RUNT||||||
[M:24/8] z7 | z17 |[M:32/8] z8 | z24 ||[K:F][M:12/8] F12- |[M:48/8] F12- F12- F12- F12- | %46
w: ||||AD-||
[M:30/8] F12- | F12- F6- | F12- F12- F6- | F12- F12- | F6- |[M:33/8] F6- F12- F12- F3- | %52
w: ||||||
[M:54/8] F12- F6- | F12- F12- F12- | F12- F12- F12- | F12- F6- |[M:42/8] F12- F6- | F12- F12- | %58
w: ||||||
[M:39/8] F12- | F12- F12- F3- |[M:30/8] F12- | F12 F6- |[M:120/8] F12- F6- | F12- F12- F12- | %64
w: |||* IU-|||
 F12- F12- F12- | F12- F12- F6- |[M:84/8] F6- | F12- F12- F12- | F12- F12- F12- | F6- | %70
w: ||||||
[M:30/8] F12- F12 F6- |[M:48/8] F12- F12- F12- | F12- |[M:72/8] F12- F12- | F12- F12- F12- | F12- | %76
w: * * VA||||||
[M:24/8] F12- F12- | F12- F12- |[M:18/8] F12 _B6- |[M:24/8] _B12- _B6 A6- | A12- | A12- | %82
w: ||||||
 A12- A12- | A12- A12- | A12- | A12- | A12- A12- |[M:18/8] A6 _B6 c6- |[M:24/8] c12- c6- | c6- | %90
w: |||||* ME *|||
 c12- c12- | c6- | c12- c6- |[M:18/8] c12- c6- |[M:24/8] c12- c12- | c12- | c12- | c12- c12- | %98
w: ||||||||
 c12- c12- | c12- | c12 | c12- c12- | c6- | c12- c6- | c12- c6- | c6- | c12- c6 c6- | c6- | %108
w: |||DO- *|||||* * MI-||
 c12- c6- | c12- c6- | c6- | c12- c6 d6- | d6- | d12 c6- |[M:36/8] c12- c6- | c12- c6- | %116
w: |||* * NE-|||||
[M:18/8] c12- c6 ||[M:36/8] c3 c3 c3 A2 z c3 d3 e3 c2 z d3 e3 d3 c2 z | %118
w: ||
[M:24/8] d3 e3 c3 A2 z B3 c3 A3 F2 z |[M:63/8] A3 F3 A3 G2 z | %120
w: ||
 F3 A3 F3 G3 A2 z c3 c3 d3 B3 c3 A2 z c3 | d3 f3 f3 c6- ||[M:60/8] c12- c12- c3- | %123
w: |||
 c12- c12- c6- c3- |[M:24/8] c6- | c12- c6 ||[M:36/8] A3 c3 d3 d3 c3 e3 | f3 d3 c3 c3 A3 z3 | %128
w: |||DE- * * * US *||
 c3 A3 c3 c3 c3 c3 | A3 c3 d3 c3 d3 e3 |[M:18/8] c3 c3 d3 d3 c3 z3 |[M:24/8] F6 F6 F6 F3 z3 | %132
w: ME- * * * US *|||SAL- VUM ME FAC|
[M:18/8] F6 G6 | F3 z3 |[M:24/8] F6 F6 F6 F3 z3 |[M:30/8] A6 | G6 F6 G6 A6- |[M:24/8] A12- | A12- | %139
w: PRO- *|PTER|MI- SE- RI- COR-||* * DI- *|||
 A12- A12- | A12- A12- |[M:36/8] A12- | A12- A6 A3 !fermata!z3 ||[M:37/8] z37 |] %144
w: |||* * AM.||
[K:C][M:12/8] D6- D3 !fermata!z3 |[M:18/8] D3 F3 A3 G3 A3 G2 z | F3 D3 F3 A2 z | G3 A2 z | %148
w: SE- *|* DE- * * * RUNT|||
[M:30/8] G3 F3 D3 F3 A2 z G3 | A3 G3 F6- |[M:18/8] F12- F6 ||[M:17/8] z17 |[M:24/8] z14 | z10 | %154
w: ||||||
[M:32/8] z12 | z20 |] %156
w: ||

